packages/assets/static/images/icons/youtube-logo.svg

<svg width="24" height="24" viewBox="0 0 24 24" xmlns="http://www.w3.org/2000/svg">
<path d="M15.4163 11.3756L10.9163 8.37563C10.8033 8.30025 10.6719 8.25697 10.5363 8.2504C10.4006 8.24382 10.2657 8.27421 10.146 8.33831C10.0263 8.40241 9.9262 8.49783 9.85645 8.61436C9.7867 8.7309 9.74991 8.86419 9.75 9V15C9.74991 15.1358 9.7867 15.2691 9.85645 15.3856C9.9262 15.5022 10.0263 15.5976 10.146 15.6617C10.2657 15.7258 10.4006 15.7562 10.5363 15.7496C10.6719 15.743 10.8033 15.6998 10.9163 15.6244L15.4163 12.6244C15.5191 12.5559 15.6035 12.4631 15.6618 12.3542C15.7202 12.2452 15.7507 12.1236 15.7507 12C15.7507 11.8764 15.7202 11.7548 15.6618 11.6458C15.6035 11.5369 15.5191 11.4441 15.4163 11.3756ZM11.25 13.5984V10.4063L13.6481 12L11.25 13.5984ZM21.9684 6.5175C21.8801 6.17189 21.7109 5.85224 21.4747 5.58491C21.2385 5.31758 20.9421 5.11024 20.61 4.98C17.3962 3.73875 12.2812 3.75 12 3.75C11.7188 3.75 6.60375 3.73875 3.39 4.98C3.0579 5.11024 2.76153 5.31758 2.52534 5.58491C2.28915 5.85224 2.1199 6.17189 2.03156 6.5175C1.78875 7.45313 1.5 9.16313 1.5 12C1.5 14.8369 1.78875 16.5469 2.03156 17.4825C2.11977 17.8283 2.28895 18.1481 2.52515 18.4156C2.76136 18.6831 3.0578 18.8906 3.39 19.0209C6.46875 20.2088 11.2875 20.25 11.9381 20.25H12.0619C12.7125 20.25 17.5341 20.2088 20.61 19.0209C20.9422 18.8906 21.2386 18.6831 21.4748 18.4156C21.711 18.1481 21.8802 17.8283 21.9684 17.4825C22.2113 16.545 22.5 14.8369 22.5 12C22.5 9.16313 22.2113 7.45313 21.9684 6.5175ZM20.5163 17.1113C20.4877 17.2263 20.4323 17.3329 20.3545 17.4224C20.2768 17.5118 20.179 17.5816 20.0691 17.6259C17.1019 18.7716 12.0553 18.7509 12.0066 18.7509H12C11.9494 18.7509 6.90656 18.7697 3.9375 17.6259C3.8276 17.5816 3.72977 17.5118 3.65204 17.4224C3.57431 17.3329 3.51888 17.2263 3.49031 17.1113C3.2625 16.2553 3 14.6784 3 12C3 9.32157 3.2625 7.74469 3.48375 6.89344C3.51179 6.77774 3.56697 6.67037 3.64473 6.58022C3.7225 6.49007 3.8206 6.41972 3.93094 6.375C6.79219 5.26969 11.5866 5.25 11.9794 5.25H12.0047C12.0553 5.25 17.1028 5.23313 20.0672 6.375C20.1771 6.41936 20.2749 6.48913 20.3526 6.57859C20.4304 6.66806 20.4858 6.77467 20.5144 6.88969C20.7375 7.74469 21 9.32157 21 12C21 14.6784 20.7375 16.2553 20.5163 17.1066V17.1113Z"/>
</svg>

<svg viewBox="0 0 24 24" xmlns="http://www.w3.org/2000/svg" aria-hidden="true" fill="currentColor"><path d="m15.416 11.376-4.5-3A.75.75 0 0 0 9.75 9v6a.75.75 0 0 0 1.166.624l4.5-3a.75.75 0 0 0 0-1.248m-4.166 2.222v-3.192L13.648 12zm10.718-7.08A2.25 2.25 0 0 0 20.61 4.98C17.396 3.739 12.281 3.75 12 3.75s-5.396-.011-8.61 1.23a2.25 2.25 0 0 0-1.358 1.537C1.789 7.454 1.5 9.164 1.5 12s.289 4.547.532 5.483A2.25 2.25 0 0 0 3.39 19.02c3.079 1.188 7.897 1.229 8.548 1.229h.124c.65 0 5.472-.041 8.548-1.23a2.25 2.25 0 0 0 1.358-1.537c.243-.938.532-2.646.532-5.483s-.289-4.547-.532-5.482M20.516 17.11a.75.75 0 0 1-.447.515c-2.967 1.146-8.014 1.125-8.062 1.125H12c-.05 0-5.093.019-8.062-1.125a.75.75 0 0 1-.448-.515C3.262 16.255 3 14.678 3 12s.263-4.255.484-5.107a.75.75 0 0 1 .447-.518C6.792 5.27 11.587 5.25 11.979 5.25h.026c.05 0 5.098-.017 8.062 1.125a.75.75 0 0 1 .447.515c.224.855.486 2.432.486 5.11s-.262 4.255-.484 5.107z"/></svg>
